X: 469
T: The Bantry lasses
C:anon.
O:Ireland
B:Francis O'Neill: "The Dance Music of Ireland" (1907) no. 469
R:Reel
Z:Transcribed by Frank Nordberg - http://www.musicaviva.com
F:http://www.musicaviva.com/abc/tunes/ireland/oneill-1001/oneill-1001-046
9.abc
M:C|
L:1/8
K:D
F|A2(FD) DFA(F|G2)FG E(FGE)|FGFE (DF)A(B|c)AGE (FD)(DF)|A2(FD) DFA(F|G2)F
G E(FGE)|FGFE (DF)A(d|c)AG(E F)DD||
||F|Add(c df)ed|cdef (ge)fd|Add(c d)fe(d|c)AGE (FD)(DG)|Add(c df)ed|cde(f
 g2)ag|f(gf)d efe(d|c)AG(E F)DD|]
W:
W:
W:  From Musica Viva - http://www.musicaviva.com
W:  the Internet center for free sheet music downloads.


